app/dist/common/images/taiyo-yuden.svg

<svg height="18" viewBox="0 0 18 18" width="18" xmlns="http://www.w3.org/2000/svg"><path d="m0 0h18v18h-18z" fill="#f0f3fa"/><path d="m2.5 6h6v1h-2.5v5h-1v-5h-2.5zm6.5 0h1.41l2.09 2.43 2.19-2.43h1.31l-3 3.36v2.64h-1v-2.64z" fill="#e83745"/></svg>

<!-- by TradingView --><svg xmlns="http://www.w3.org/2000/svg" width="18" height="18" viewBox="0 0 18 18"><path fill="#F0F3FA" d="M0 0h18v18H0z"/><path d="M2.5 6h6v1H6v5H5V7H2.5V6ZM9 6h1.41l2.09 2.43L14.69 6H16l-3 3.36V12h-1V9.36L9 6Z" fill="#E83745"/></svg>
